!!! OTL: Literature97
!!! Chapter: 5
!!! Section: III
!!! Page: 367
!!! Mode: 
!!! Encoder: DJB
**kern
*staff1
*I"Piano
=1-
*clefC4
*k[b-e-a-]
*E-:
*M9/8
8e-\L
8d\
8e-\J
4.B-\
4.G/
=2
8F/L
8En/
8F/J
2.c\
=3
8B-\L
8d\
8c\J
8c\L
8B-\
8A-\J
8A-/L
8G/
8F/J
=4
[2.G/
4.G/]
=5
8e-\L
8d\
8e-\J
4.B-\
4.G/
=6
8F/L
8En/
8F/J
2.c\
=7
8B-\L
8d\
8c\J
8c\L
8B-\
8A-\J
8A-/L
8G/
8F/J
=8
!!linebreak:original
[2.E-/
4.E-/]
=9
8B-/L
8A-/
8F/J
4.D/
4.c\
=10
8c\L
8B-\
8G\J
2.E-/
=11
8e-\L
8d\
8e-\J
4.c\
4f\
8e-\
=12
8d\L
8e-\
8c\J
2.B-\
=13
8e-\L
8d\
8e-\J
4.B-\
4.G/
=14
8F/L
8En/
8F/J
2.c\
=15
!!linebreak:original
8B-\L
8d\
8c\J
8c\L
8B-\
8A-\J
8A-/L
8G/
8F/J
=16
[2.G/
4.G/]
=17
8c\L
8d\
8e-\J
8e-\L
8B-\
8G\J
8A-/L
8G/
8F/J
=18
[2.E-/
4.E-/]
==
*-
